healthcode/ykm/static/2c258b7b98bdfcb70a00c769d685e9bb.svg

<svg height="96" viewBox="0 0 190 96" width="190" xmlns="http://www.w3.org/2000/svg"><g fill="none"><path d="m0 0h190v96h-190z"/><g fill="#fff"><path d="m0 86.1328125h48.6914062v-12.2460937h-32.6367187l27.4804687-34.453125c3.4375-4.375 5.15625-9.375 5.15625-15-.078125-7.03125-2.4414062-12.8320313-7.0898437-17.4023438-4.5703125-4.609375-10.5273437-6.953125-17.8710937-7.03125-6.5625.078125-12.0898438 2.3828125-16.5820313 6.9140625-4.453125 4.6484375-6.8359375 10.5273437-7.1484375 17.6367187h12.1875c.4296875-3.90625 1.796875-6.9335937 4.1015625-9.0820312 2.2265625-2.1484375 5.0195313-3.2226562 8.3789062-3.2226562 3.7890625.078125 6.7187501 1.3085937 8.7890625 3.6914062 1.9921876 2.3828125 2.9882813 5.1757812 2.9882813 8.3789062 0 1.2109376-.15625 2.5-.46875 3.8671876-.46875 1.4453125-1.3476563 3.0078124-2.6367187 4.6875l-33.3398438 41.71875z" transform="translate(1.636719 5.734375)"/><path d="m55 73.7148438h35.625v12.7148437h12.246094v-12.7148437h6.796875v-11.5429688h-6.796875v-24.5507812h-12.246094v24.5507812h-22.3242188l28.8867188-61.171875h-13.6523438l-28.5351562 61.171875z" transform="translate(1.636719 5.734375)"/><path d="m13.312 28.992c2.72 0 4.096-1.44 4.096-4.256v-24.512h-3.488v23.616c0 1.28-.64 1.92-1.888 1.92-1.28 0-2.656-.096-4.128-.256l.8 3.488zm13.824-5.408 3.04-2.112c-1.216-4.16-2.944-9.056-5.152-14.656l-3.072 1.92c2.176 5.44 3.904 10.4 5.184 14.848zm-24.192-.192c2.368-3.328 4.256-8.16 5.696-14.432l-3.36-1.312c-1.12 5.472-2.88 9.856-5.28 13.152zm52.128 5.632c2.176 0 3.296-1.12 3.296-3.36v-17.184h3.456v-3.232h-3.456v-5.248h-3.392v5.248h-10.496v3.232h10.496v16.352c0 .768-.384 1.152-1.088 1.152-1.664 0-3.424-.064-5.28-.192l.736 3.232zm-18.464-2.272v-2.688h3.488v1.92h3.2v-24.128h-9.952v24.896zm3.488-15.52h-3.488v-6.336h3.488zm9.76 10.048 2.784-1.92c-1.024-2.208-2.528-4.8-4.448-7.808l-2.752 1.728c1.856 2.944 3.328 5.632 4.416 8zm-9.76-.32h-3.488v-6.624h3.488zm-35.392 56.416v-25.504h4.832c-.704 2.528-1.696 5.376-2.976 8.544 1.728 2.656 2.592 5.056 2.592 7.2 0 .512-.16.864-.48 1.056-.352.192-1.024.32-1.984.384-.448 0-1.024-.064-1.728-.16l1.056 3.296c2.56-.032 4.384-.448 5.472-1.28.672-.672 1.024-1.76 1.024-3.296-.128-2.176-.992-4.736-2.56-7.712 1.152-3.008 2.144-5.856 2.976-8.544v-2.624h-11.488v28.64zm8.896.32c1.856-2.816 3.072-6.24 3.68-10.272h7.84v5.312c0 .832-.352 1.248-1.024 1.248-.96 0-2.016-.064-3.136-.128l.896 3.2h3.264c2.176 0 3.264-1.056 3.264-3.136v-25.12h-13.824v13.344c-.032 5.312-1.248 9.664-3.616 13.12zm11.52-21.216h-7.424v-4.48h7.424zm0 7.84h-7.52c.064-.768.096-1.568.096-2.368v-2.368h7.424zm14.72 12.928v-22.944c.608 1.696 1.12 3.488 1.568 5.376l1.248-.32c-.192.384-.384.768-.576 1.184l2.496 2.208c1.024-1.856 1.824-3.872 2.4-6.048h4.096v6.816h-7.072v3.264h7.072v6.496h-8.768v3.232h19.616v-3.232h-7.456v-6.496h6.304v-3.264h-6.304v-6.816h6.592v-3.232h-6.592v-5.6h-3.392v5.6h-3.456c.128-1.024.192-2.048.256-3.136l-3.04-.416c-.128 2.56-.576 4.96-1.312 7.264-.416-1.408-.864-2.72-1.376-3.936l-2.304.736v-6.176h-3.36v29.44zm-5.088-13.888c.576-2.88.928-5.92.992-9.12l-2.56-.192c-.096 3.008-.48 5.856-1.12 8.544z" transform="translate(127.964813 10.116812)"/></g></g></svg>

<?xml version="1.0" encoding="UTF-8"?>
<svg width="190px" height="96px" viewBox="0 0 190 96" version="1.1" xmlns="http://www.w3.org/2000/svg" xmlns:xlink="http://www.w3.org/1999/xlink">
	<title>48</title>
	<g id="20210605-48小时标识" stroke="none" stroke-width="1" fill="none" fill-rule="evenodd">
		<g id="48" fill-rule="nonzero">
			<rect id="矩形" x="0" y="0" width="190" height="96"></rect>
			<g id="编组-19" transform="translate(1.000000, 5.000000)" fill="#FFFFFF">
				<g id="25">
					<path d="M0,86.1328125 L48.6914062,86.1328125 L48.6914062,73.8867188 L16.0546875,73.8867188 L43.5351562,39.4335938 C46.9726562,35.0585938 48.6914062,30.0585938 48.6914062,24.4335938 C48.6132812,17.4023438 46.25,11.6015625 41.6015625,7.03125 C37.03125,2.421875 31.0742188,0.078125 23.7304688,0 C17.1679688,0.078125 11.640625,2.3828125 7.1484375,6.9140625 C2.6953125,11.5625 0.3125,17.4414062 0,24.5507812 L12.1875,24.5507812 C12.6171875,20.6445312 13.984375,17.6171875 16.2890625,15.46875 C18.515625,13.3203125 21.3085938,12.2460938 24.6679687,12.2460938 C28.4570312,12.3242188 31.3867188,13.5546875 33.4570312,15.9375 C35.4492188,18.3203125 36.4453125,21.1132812 36.4453125,24.3164062 C36.4453125,25.5273438 36.2890625,26.8164062 35.9765625,28.1835938 C35.5078125,29.6289063 34.6289062,31.1914062 33.3398438,32.8710938 L0,74.5898438 L0,86.1328125 Z" transform="translate(.636719 .734375)" />
					<path d="M55 73.7148438L90.625 73.7148438 90.625 86.4296875 102.871094 86.4296875 102.871094 73.7148438 109.667969 73.7148438 109.667969 62.171875 102.871094 62.171875 102.871094 37.6210938 90.625 37.6210938 90.625 62.171875 68.3007812 62.171875 97.1875 1 83.5351562 1 55 62.171875z" transform="translate(.636719 .734375)" />
				</g>
				<g id="25备份" transform="translate(126.964813, 5.116812)">
					<path d="M13.312,28.992 C16.032,28.992 17.408,27.552 17.408,24.736 L17.408,0.224 L13.92,0.224 L13.92,23.84 C13.92,25.12 13.28,25.76 12.032,25.76 C10.752,25.76 9.376,25.664 7.904,25.504 L8.704,28.992 L13.312,28.992 Z M27.136,23.584 L30.176,21.472 C28.96,17.312 27.232,12.416 25.024,6.816 L21.952,8.736 C24.128,14.176 25.856,19.136 27.136,23.584 Z M2.944,23.392 C5.312,20.064 7.2,15.232 8.64,8.96 L5.28,7.648 C4.16,13.12 2.4,17.504 0,20.8 L2.944,23.392 Z M55.072,29.024 C57.248,29.024 58.368,27.904 58.368,25.664 L58.368,8.48 L61.824,8.48 L61.824,5.248 L58.368,5.248 L58.368,0 L54.976,0 L54.976,5.248 L44.48,5.248 L44.48,8.48 L54.976,8.48 L54.976,24.832 C54.976,25.6 54.592,25.984 53.888,25.984 C52.224,25.984 50.464,25.92 48.608,25.792 L49.344,29.024 L55.072,29.024 Z M36.608,26.752 L36.608,24.064 L40.096,24.064 L40.096,25.984 L43.296,25.984 L43.296,1.856 L33.344,1.856 L33.344,26.752 L36.608,26.752 Z M40.096,11.232 L36.608,11.232 L36.608,4.896 L40.096,4.896 L40.096,11.232 Z M49.856,21.28 L52.64,19.36 C51.616,17.152 50.112,14.56 48.192,11.552 L45.44,13.28 C47.296,16.224 48.768,18.912 49.856,21.28 Z M40.096,20.96 L36.608,20.96 L36.608,14.336 L40.096,14.336 L40.096,20.96 Z M4.704,77.376 L4.704,51.872 L9.536,51.872 C8.832,54.4 7.84,57.248 6.56,60.416 C8.288,63.072 9.152,65.472 9.152,67.616 C9.152,68.128 8.992,68.48 8.672,68.672 C8.32,68.864 7.648,68.992 6.688,69.056 C6.24,69.056 5.664,68.992 4.96,68.896 L6.016,72.192 C8.576,72.16 10.4,71.744 11.488,70.912 C12.16,70.24 12.512,69.152 12.512,67.616 C12.384,65.44 11.52,62.88 9.952,59.904 C11.104,56.896 12.096,54.048 12.928,51.36 L12.928,48.736 L1.44,48.736 L1.44,77.376 L4.704,77.376 Z M13.6,77.696 C15.456,74.88 16.672,71.456 17.28,67.424 L25.12,67.424 L25.12,72.736 C25.12,73.568 24.768,73.984 24.096,73.984 C23.136,73.984 22.08,73.92 20.96,73.856 L21.856,77.056 L25.12,77.056 C27.296,77.056 28.384,76 28.384,73.92 L28.384,48.8 L14.56,48.8 L14.56,62.144 C14.528,67.456 13.312,71.808 10.944,75.264 L13.6,77.696 Z M25.12,56.48 L17.696,56.48 L17.696,52 L25.12,52 L25.12,56.48 Z M25.12,64.32 L17.6,64.32 C17.664,63.552 17.696,62.752 17.696,61.952 L17.696,59.584 L25.12,59.584 L25.12,64.32 Z M39.84,77.248 L39.84,54.304 C40.448,56 40.96,57.792 41.408,59.68 L42.656,59.36 C42.464,59.744 42.272,60.128 42.08,60.544 L44.576,62.752 C45.6,60.896 46.4,58.88 46.976,56.704 L51.072,56.704 L51.072,63.52 L44,63.52 L44,66.784 L51.072,66.784 L51.072,73.28 L42.304,73.28 L42.304,76.512 L61.92,76.512 L61.92,73.28 L54.464,73.28 L54.464,66.784 L60.768,66.784 L60.768,63.52 L54.464,63.52 L54.464,56.704 L61.056,56.704 L61.056,53.472 L54.464,53.472 L54.464,47.872 L51.072,47.872 L51.072,53.472 L47.616,53.472 C47.744,52.448 47.808,51.424 47.872,50.336 L44.832,49.92 C44.704,52.48 44.256,54.88 43.52,57.184 C43.104,55.776 42.656,54.464 42.144,53.248 L39.84,53.984 L39.84,47.808 L36.48,47.808 L36.48,77.248 L39.84,77.248 Z M34.752,63.36 C35.328,60.48 35.68,57.44 35.744,54.24 L33.184,54.048 C33.088,57.056 32.704,59.904 32.064,62.592 L34.752,63.36 Z" id="小时阴性"></path>
				</g>
			</g>
		</g>
	</g>
</svg>
